icon-themes/breeze_svg/cmd/lc_signature.svg

<svg viewBox="0 0 24 24" xmlns="http://www.w3.org/2000/svg"><path d="m5 4v1 7 2h2v-2h-1v-7h12v7h1v-8h-13zm4 8v2h2v-2zm7.5 2c-.831 0-1.5.669-1.5 1.5v1.5h-1v3h5v-3h-1v-1.5c0-.831-.669-1.5-1.5-1.5zm-9.5 1v2h2v-2zm9.5 0c.277 0 .5.223.5.5v1.5h-1v-1.5c0-.277.223-.5.5-.5zm-11.5 3v2h1 1v-2zm4 0v2h2v-2z" fill="#4d4d4d"/></svg>

<svg xmlns="http://www.w3.org/2000/svg" viewBox="0 0 24 24">
 <path 
     style="fill:#4d4d4d" 
     d="M 5 4 L 5 5 L 5 12 L 5 14 L 7 14 L 7 12 L 6 12 L 6 5 L 18 5 L 18 12 L 19 12 L 19 4 L 6 4 L 5 4 z M 9 12 L 9 14 L 11 14 L 11 12 L 9 12 z M 16.5 14 C 15.669 14 15 14.669 15 15.5 L 15 17 L 14 17 L 14 20 L 19 20 L 19 17 L 18 17 L 18 15.5 C 18 14.669 17.331 14 16.5 14 z M 7 15 L 7 17 L 9 17 L 9 15 L 7 15 z M 16.5 15 C 16.777 15 17 15.223 17 15.5 L 17 17 L 16 17 L 16 15.5 C 16 15.223 16.223 15 16.5 15 z M 5 18 L 5 20 L 6 20 L 7 20 L 7 18 L 5 18 z M 9 18 L 9 20 L 11 20 L 11 18 L 9 18 z "
     />
 </svg>
